src/assets/svg/icons/fa/nuevos/classic/light/draw-circle classic light.svg

<svg xmlns="http://www.w3.org/2000/svg" viewBox="0 0 512 512"><!--! Font Awesome Pro 6.4.0 by @fontawesome - https://fontawesome.com License - https://fontawesome.com/license (Commercial License) Copyright 2023 Fonticons, Inc. --><path d="M256 96a32 32 0 1 0 0-64 32 32 0 1 0 0 64zm58.5-6c-10 22.4-32.4 38-58.5 38s-48.6-15.6-58.5-38C147.4 107.6 107.6 147.4 90 197.5c22.4 10 38 32.4 38 58.5s-15.6 48.6-38 58.5c17.7 50.1 57.4 89.9 107.5 107.5c10-22.4 32.4-38 58.5-38s48.6 15.6 58.5 38c50.1-17.7 89.9-57.4 107.5-107.5c-22.4-10-38-32.4-38-58.5s15.6-48.6 38-58.5C404.4 147.4 364.6 107.6 314.5 90zM454.1 192.3c32.5 3.1 57.9 30.4 57.9 63.7s-25.4 60.7-57.9 63.7c-20.5 63.6-70.7 113.9-134.3 134.3C316.7 486.6 289.3 512 256 512s-60.7-25.4-63.7-57.9C128.7 433.6 78.4 383.3 57.9 319.7C25.4 316.7 0 289.3 0 256s25.4-60.7 57.9-63.7C78.4 128.7 128.7 78.4 192.3 57.9C195.3 25.4 222.7 0 256 0s60.7 25.4 63.7 57.9c63.6 20.5 113.9 70.7 134.3 134.3zM256 480a32 32 0 1 0 0-64 32 32 0 1 0 0 64zM96 256a32 32 0 1 0 -64 0 32 32 0 1 0 64 0zm352 32a32 32 0 1 0 0-64 32 32 0 1 0 0 64z"/></svg>

<svg xmlns="http://www.w3.org/2000/svg" viewBox="0 0 512 512"><path d="M454.1 192.3C486.6 195.3 512 222.7 512 256C512 289.3 486.6 316.7 454.1 319.7C433.6 383.3 383.3 433.6 319.7 454.1C316.7 486.6 289.3 512 256 512C222.7 512 195.3 486.6 192.3 454.1C128.7 433.6 78.39 383.3 57.94 319.7C25.44 316.7 0 289.3 0 256C0 222.7 25.44 195.3 57.94 192.3C78.39 128.7 128.7 78.39 192.3 57.94C195.3 25.44 222.7 0 256 0C289.3 0 316.7 25.44 319.7 57.94C383.3 78.39 433.6 128.7 454.1 192.3H454.1zM255.1 96C273.7 96 288 81.67 288 64C288 46.33 273.7 32 255.1 32C238.3 32 223.1 46.33 223.1 64C223.1 81.67 238.3 96 255.1 96zM314.5 89.96C304.6 112.4 282.1 128 255.1 128C229.9 128 207.4 112.4 197.5 89.96C147.4 107.6 107.6 147.4 89.96 197.5C112.4 207.4 127.1 229.9 127.1 256C127.1 282.1 112.4 304.6 89.96 314.5C107.6 364.6 147.4 404.4 197.5 422C207.4 399.6 229.9 384 255.1 384C282.1 384 304.6 399.6 314.5 422C364.6 404.4 404.4 364.6 422 314.5C399.6 304.6 384 282.1 384 256C384 229.9 399.6 207.4 422 197.5C404.4 147.4 364.6 107.6 314.5 89.96H314.5zM255.1 480C273.7 480 288 465.7 288 448C288 430.3 273.7 416 255.1 416C238.3 416 223.1 430.3 223.1 448C223.1 465.7 238.3 480 255.1 480zM63.1 224C46.33 224 31.1 238.3 31.1 256C31.1 273.7 46.33 288 63.1 288C81.67 288 95.1 273.7 95.1 256C95.1 238.3 81.67 224 63.1 224zM448 288C465.7 288 480 273.7 480 256C480 238.3 465.7 224 448 224C430.3 224 416 238.3 416 256C416 273.7 430.3 288 448 288z"/></svg>
